icons/diff.svg

<svg width="16" height="16" viewBox="0 0 16 16" fill="none" xmlns="http://www.w3.org/2000/svg">
<path fill-rule="evenodd" clip-rule="evenodd" d="M13 4.00006H8.89C8.76126 3.99857 8.63358 4.02354 8.51489 4.07343C8.3962 4.12331 8.28902 4.19705 8.2 4.29006C7.51 5.00006 6 6.53006 5.29 7.21006C5.10526 7.39632 5.0011 7.64772 5 7.91006V13.0001C5 13.2653 5.10536 13.5196 5.29289 13.7072C5.48043 13.8947 5.73478 14.0001 6 14.0001H13C13.2652 14.0001 13.5196 13.8947 13.7071 13.7072C13.8946 13.5196 14 13.2653 14 13.0001V5.00006C14 4.73485 13.8946 4.48049 13.7071 4.29296C13.5196 4.10542 13.2652 4.00006 13 4.00006ZM8.66667 7.3C8.66667 7.13431 8.80098 7 8.96667 7H10.0333C10.199 7 10.3333 7.13431 10.3333 7.3V8.66667H11.7C11.8657 8.66667 12 8.80098 12 8.96667V10.0333C12 10.199 11.8657 10.3333 11.7 10.3333H10.3333V11.7C10.3333 11.8657 10.199 12 10.0333 12H8.96667C8.80098 12 8.66667 11.8657 8.66667 11.7V10.3333H7.3C7.13431 10.3333 7 10.199 7 10.0333V8.96667C7 8.80098 7.13431 8.66667 7.3 8.66667L8.66667 8.66667V7.3Z" fill="#6FC278"/>
<path fill-rule="evenodd" clip-rule="evenodd" d="M5.89 2.00006H10C10.2652 2.00006 10.5196 2.10542 10.7071 2.29296C10.8946 2.48049 11 2.73485 11 3.00006H7.89C7.76126 2.99857 7.63358 3.02354 7.51489 3.07343C7.3962 3.12331 7.28902 3.19705 7.2 3.29006C6.51 4.00006 5 5.53006 4.29 6.21006C4.10526 6.39632 4.0011 6.64772 4 6.91006V12.0001H3C2.73478 12.0001 2.48043 11.8947 2.29289 11.7072C2.10536 11.5196 2 11.2653 2 11.0001V5.91006C2.0011 5.64772 2.10526 5.39632 2.29 5.21006C3 4.53006 4.51 3.00006 5.2 2.29006C5.28902 2.19705 5.3962 2.12331 5.51489 2.07343C5.63358 2.02354 5.76126 1.99857 5.89 2.00006Z" fill="#C84E72"/>
</svg>

<svg xmlns="http://www.w3.org/2000/svg" width="16" height="16" fill="none"><path fill="#6FC278" fill-rule="evenodd" d="M13 4H8.89a.94.94 0 0 0-.69.29C7.51 5 6 6.53 5.29 7.21a1 1 0 0 0-.29.7V13a1 1 0 0 0 1 1h7a1 1 0 0 0 1-1V5a1 1 0 0 0-1-1ZM8.667 7.3a.3.3 0 0 1 .3-.3h1.066a.3.3 0 0 1 .3.3v1.367H11.7a.3.3 0 0 1 .3.3v1.066a.3.3 0 0 1-.3.3h-1.367V11.7a.3.3 0 0 1-.3.3H8.967a.3.3 0 0 1-.3-.3v-1.367H7.3a.3.3 0 0 1-.3-.3V8.967a.3.3 0 0 1 .3-.3h1.367V7.3Z" clip-rule="evenodd"/><path fill="#C84E72" fill-rule="evenodd" d="M5.89 2H10a1 1 0 0 1 1 1H7.89a.94.94 0 0 0-.69.29C6.51 4 5 5.53 4.29 6.21a1 1 0 0 0-.29.7V12H3a1 1 0 0 1-1-1V5.91a1 1 0 0 1 .29-.7C3 4.53 4.51 3 5.2 2.29A.94.94 0 0 1 5.89 2Z" clip-rule="evenodd"/></svg>
